X: 132021
T: ANE AN' TWENTY TAM
Q: "Scotch Jig."
R: Jig.
%R: jig
B: James Kerr "Merry Melodies" v.1 p.32 s.0 #21
Z: 2016 John Chambers <jc:trillian.mit.edu>
M: 6/8
L: 1/8
K: G	% and E minor
ug |\
vdBG ABd | ve2vA uA2ug | dBG ABd | e2E E2g |\
dBG ABd | edc BAG | cBA B2^d | e2E E2 :|
|: uf |\
g>ag gfg | a>ba a>gf | g>fg a>ga | b2e e2f |\
g>ag g>fg | a>ba a>gf | g>fe B2^d | e2E E2 :|

%%sep 1 1 500
%%sep 1 1 500

